P3
16 16
255
154 116 67 135 106 64 152 107 52 151 113 64 152 116 68 134 102 61 160 114 62 149 112 67 148 110 65 142 108 63 153 112 58 146 113 68 153 110 59 140 105 63 150 108 58 152 115 63 
136 99 54 108 80 41 153 109 60 148 111 67 135 98 54 105 75 37 153 109 60 140 105 63 139 102 60 111 78 37 147 107 58 139 107 66 146 103 58 109 75 37 154 113 67 140 103 58 
138 104 67 81 56 26 153 111 69 139 105 68 127 93 58 89 62 33 158 116 74 132 99 64 129 95 60 104 74 40 151 114 72 132 103 71 134 95 56 88 57 28 150 112 75 124 90 52 
67 63 52 49 54 50 71 59 45 65 61 52 70 67 60 62 64 63 72 60 46 70 67 60 49 44 38 48 47 42 51 43 30 61 62 56 50 40 30 65 65 63 73 66 56 49 47 35 
37 33 24 33 37 36 45 35 23 38 33 27 47 44 37 44 48 47 43 31 19 38 35 30 36 31 25 34 33 28 50 42 29 39 40 35 37 28 19 37 37 37 42 35 27 35 32 23 
129 96 61 80 56 28 137 98 59 123 90 57 118 87 56 82 56 31 135 96 57 117 86 55 124 89 57 88 59 27 121 86 46 115 88 58 127 91 55 103 76 49 119 85 50 123 93 59 
140 105 65 98 72 39 142 101 55 136 103 62 128 94 56 83 57 24 140 97 54 143 109 72 146 111 73 102 70 31 150 112 67 128 98 62 152 113 72 90 61 29 129 94 54 138 106 67 
137 103 58 112 86 49 154 112 62 136 102 57 137 104 61 106 78 41 156 114 66 134 101 60 148 111 69 118 85 42 135 97 48 130 101 61 149 111 66 110 80 44 131 94 50 135 104 60 
137 106 62 104 73 42 153 111 69 126 96 58 139 101 65 107 78 46 152 116 66 138 104 59 128 96 55 108 77 46 154 113 69 125 96 54 138 100 63 89 60 28 140 104 56 138 103 65 
134 103 56 90 60 24 156 116 67 118 89 47 142 104 65 110 82 45 149 114 60 137 103 57 125 93 52 90 59 28 153 112 66 130 101 59 135 97 58 91 62 28 138 102 54 139 104 66 
135 106 64 93 62 33 130 91 48 118 90 53 126 90 56 86 59 30 139 105 59 140 106 69 139 110 66 87 57 23 144 106 57 119 92 47 140 105 65 101 75 38 135 102 51 137 104 63 
48 45 38 43 41 44 53 40 32 65 64 60 76 66 67 60 59 65 69 60 51 49 41 39 63 59 60 45 42 53 60 46 43 43 41 42 50 39 43 61 60 68 56 47 42 53 44 47 
39 36 29 37 35 40 42 32 23 35 34 30 54 44 45 48 47 53 39 30 21 42 33 34 41 39 27 34 33 31 44 35 20 41 41 29 39 30 23 37 37 35 40 33 15 41 34 26 
126 96 58 82 52 24 134 97 53 127 99 60 115 79 45 82 57 27 131 98 53 121 87 52 118 88 54 86 56 32 126 88 51 114 85 51 127 90 61 81 55 30 130 97 56 122 87 57 
125 96 52 103 73 39 140 102 53 119 92 47 142 107 65 103 77 40 150 117 64 139 106 63 128 100 53 105 75 37 142 105 53 126 99 52 131 97 52 103 78 38 152 119 65 135 102 57 
128 98 60 83 53 25 137 98 55 125 97 57 128 93 55 103 77 44 128 94 46 126 92 54 121 91 53 91 61 33 129 90 49 123 95 56 134 98 64 86 59 30 124 90 45 131 97 62 
